!!!!SEGMENT: Snf0229-Nisi_Dominus.krn
!!!id: Snf0229
!!!AGN: Motet
!!!SCT: Edwards, Gasch, Tröster (2022)
!!!voices: 4
!!!COM: Ludwig Senfl
!!!OTL: Nisi Dominus
**kern	**text	**kern	**text	**kern	**text	**kern	**text
*part4	*part4	*part3	*part3	*part2	*part2	*part1	*part1
*staff4	*staff4	*staff3	*staff3	*staff2	*staff2	*staff1	*staff1
*I"Bassus	*	*I"Tenor	*	*I"Altus	*	*I"Superius	*
*I'B	*	*I'T	*	*I'A	*	*I'S	*
*clefF4	*	*clefGv2	*	*clefGv2	*	*clefG2	*
*k[b-]	*	*k[b-]	*	*k[b-]	*	*k[b-]	*
*F:	*	*F:	*	*F:	*	*F:	*
*M2/1	*	*M2/1	*	*M2/1	*	*M2/1	*
*met(C|)	*	*met(C|)	*	*met(C|)	*	*met(C|)	*
!!section: Prima pars: Nisi Dominus
!!!OMD: Prima pars: Nisi Dominus
0r	.	0r	.	1r	.	0a	Ni-
.	.	.	.	[1d	Ni-	.	.
=1	=1	=1	=1	=1	=1	=1	=1
0r	.	0r	.	1d]	.	1f	-si
.	.	.	.	1B-y	-si	[1b-y	Do-
=2	=2	=2	=2	=2	=2	=2	=2
0r	.	0r	.	1.e-X	Do-	2b-]	.
.	.	.	.	.	.	2g	-mi-
.	.	.	.	.	.	1g	-nus
.	.	.	.	2c	-mi-	.	.
=3	=3	=3	=3	=3	=3	=3	=3
0r	.	0r	.	1c	-nus	2r	.
.	.	.	.	.	.	2g	ae-
.	.	.	.	2r	.	2g	-di-
.	.	.	.	2c	ae-	2g	-fi-
=4	=4	=4	=4	=4	=4	=4	=4
0r	.	0r	.	2c	-di-	1.a	-ca-
.	.	.	.	2c	-fi-	.	.
.	.	.	.	[1d	-ca-	.	.
.	.	.	.	.	.	2f	-ve-
=5	=5	=5	=5	=5	=5	=5	=5
0r	.	0r	.	2d]	.	1f	-rit
.	.	.	.	2B-y	-ve-	.	.
.	.	.	.	2B-y	-rit	2.g	do-
.	.	.	.	[2c	do-	.	.
.	.	.	.	.	.	4f	.
=6	=6	=6	=6	=6	=6	=6	=6
0r	.	0r	.	4c]	.	2g	.
.	.	.	.	4B-y	.	.	.
.	.	.	.	2c	.	2.a	.
.	.	.	.	2.d	.	.	.
.	.	.	.	.	.	4f	.
.	.	.	.	.	.	2f	.
.	.	.	.	4B-y	.	.	.
=7	=7	=7	=7	=7	=7	=7	=7
0r	.	0r	.	2B-y	.	2d	.
.	.	.	.	2G	.	1g	.
.	.	.	.	1A	.	.	.
.	.	.	.	.	.	2f#i	.
=8	=8	=8	=8	=8	=8	=8	=8
0r	.	0r	.	1G	-mum	[0g	-mum
.	.	.	.	2r	.	.	.
.	.	.	.	2G	in	.	.
=9	=9	=9	=9	=9	=9	=9	=9
0r	.	0r	.	1c	va-	1g]	.
.	.	.	.	1B-y	-num	2r	.
.	.	.	.	.	.	2d	in
=10	=10	=10	=10	=10	=10	=10	=10
0r	.	0r	.	2r	.	1g	va-
.	.	.	.	2G	la-	.	.
.	.	.	.	2A	-bo-	1f	-num
.	.	.	.	2B-y	-ra-	.	.
=11	=11	=11	=11	=11	=11	=11	=11
0r	.	0r	.	2c	-ve-	2r	.
.	.	.	.	2G	-runt,	2d	la-
.	.	.	.	2r	.	2e	-bo-
.	.	.	.	2d	la-	2f	-ra-
=12	=12	=12	=12	=12	=12	=12	=12
0r	.	0r	.	2e	-bo-	2g	-ve-
.	.	.	.	2f	-ra-	2d	-runt,
.	.	.	.	2g	-ve-	2r	.
.	.	.	.	2d	-runt,	2a	la-
=13	=13	=13	=13	=13	=13	=13	=13
0r	.	0r	.	2d	[la-	2b-y	-bo-
.	.	.	.	2e	-bo-	2cc	-ra-
.	.	.	.	2f	-ra-	[1dd	-ve-
.	.	.	.	2g	-ve-	.	.
=14	=14	=14	=14	=14	=14	=14	=14
0r	.	0r	.	1d	-runt]	1dd]	.
.	.	.	.	2r	.	1a	-runt
.	.	.	.	[2f	qui	.	.
=15	=15	=15	=15	=15	=15	=15	=15
0r	.	0r	.	2f]	.	2r	.
.	.	.	.	2e	ae-	1cc	qui
.	.	.	.	2f	-di-	.	.
.	.	.	.	2d	-fi-	2b-y	ae-
=16	=16	=16	=16	=16	=16	=16	=16
0r	.	0r	.	2c	-cant	2cc	-di-
.	.	.	.	2f	e-	2a	-fi-
.	.	.	.	2e	.	2g	-cant
.	.	.	.	[2f	.	[2a	e-
=17	=17	=17	=17	=17	=17	=17	=17
0r	.	1r	.	2f]	.	2a]	.
.	.	.	.	4e	.	4g	.
.	.	.	.	4d	.	4f	.
.	.	[1A	Ni-	4c#i	.	4e	.
.	.	.	.	4BnXi	.	4d	.
.	.	.	.	2c#i	.	2e	.
=18	=18	=18	=18	=18	=18	=18	=18
0D	Ni-	1A]	.	0d	-am.	0d	-am.
.	.	1F	-si	.	.	.	.
=19	=19	=19	=19	=19	=19	=19	=19
1BB-y	-si	1.B-y	Do-	0r	.	0r	.
[1E-i	Do-	.	.	.	.	.	.
.	.	2G	-mi-	.	.	.	.
=20	=20	=20	=20	=20	=20	=20	=20
2E-]	.	1G	-nus	0r	.	0r	.
2C	-mi-	.	.	.	.	.	.
1C	-nus	2r	.	.	.	.	.
.	.	[2G	cu-	.	.	.	.
=21	=21	=21	=21	=21	=21	=21	=21
2r	.	2G]	.	0r	.	0r	.
1C	cu-	2G	-sto-	.	.	.	.
.	.	[1A	-di-	.	.	.	.
2C	-sto-	.	.	.	.	.	.
=22	=22	=22	=22	=22	=22	=22	=22
1.D	-di-	2A]	.	0r	.	0r	.
.	.	2F	-e-	.	.	.	.
.	.	1F	-rit	.	.	.	.
2BB-y	-e-	.	.	.	.	.	.
=23	=23	=23	=23	=23	=23	=23	=23
2BB-y	-rit	1G	ci-	0r	.	0r	.
1C	ci-	.	.	.	.	.	.
.	.	2G	-vi-	.	.	.	.
2C	-vi-	2A	-ta-	.	.	.	.
=24	=24	=24	=24	=24	=24	=24	=24
2D	-ta-	2F	.	0r	.	0r	.
2BB-y	.	1G	.	.	.	.	.
1AA	.	.	.	.	.	.	.
.	.	2F#i	.	.	.	.	.
=25	=25	=25	=25	=25	=25	=25	=25
1GG	-tem	1G	-tem	1r	.	1r	.
[1D	fru-	[1A	fru-	[1d	…fru-	[1f	…fru-
=26	=26	=26	=26	=26	=26	=26	=26
2D]	.	2A]	.	2d]	.	2f]	.
2D	-stra	2A	-stra	2d	-stra	2f	-stra
2GG	vi-	2B-y	vi-	2d	vi-	2g	vi-
2GG	-gi-	2B-y	-gi-	2d	-gi-	2g	-gi-
=27	=27	=27	=27	=27	=27	=27	=27
1D	-lat	1A	-lat	1d	-lat	1f	-lat
2r	.	[1F	qui	[1f	qui	[1a	qui
[2D	qui	.	.	.	.	.	.
=28	=28	=28	=28	=28	=28	=28	=28
2D]	.	2F]	.	2f]	.	2a]	.
2D	cu-	2F	cu-	2f	cu-	2a	cu-
1GG	-sto-	1G	-sto-	1d	-sto-	1b-y	-sto-
=29	=29	=29	=29	=29	=29	=29	=29
1D	-dit	1F	-dit	1f	-dit	1a	-dit
2r	.	2.B-y	e-	2r	.	1dd	e-
2BB-y	e-	.	.	2f	e-	.	.
.	.	4A	.	.	.	.	.
=30	=30	=30	=30	=30	=30	=30	=30
2C	.	2G	.	2e	.	2cc	.
2D	.	2F	.	1d	.	1b-y	.
1E-i	.	1G	.	.	.	.	.
.	.	.	.	2c	.	4a	.
.	.	.	.	.	.	4g	.
=31	=31	=31	=31	=31	=31	=31	=31
2D	.	2A	.	1.d	.	1f	.
1BB-y	.	1B-y	.	.	.	.	.
.	.	.	.	.	.	2g	.
2C	.	4A	.	4c	.	[2a	.
.	.	4G	.	4B-y	.	.	.
=32	=32	=32	=32	=32	=32	=32	=32
2D	.	2F	.	2A	.	2a]	.
2E-i	.	2G	.	2c	.	1g	.
1D	.	1A	.	1d	.	.	.
.	.	.	.	.	.	2f#i	.
=33	=33	=33	=33	=33	=33	=33	=33
0GG	-am.	0G	-am.	0d	-am.	1g	-am.
.	.	.	.	.	.	2r	.
.	.	.	.	.	.	2b-y	Va-
=34	=34	=34	=34	=34	=34	=34	=34
0r	.	0r	.	2r	.	2a	-num
.	.	.	.	2e-X	Va-	2g	est
.	.	.	.	2d	-num	1a	vo-
.	.	.	.	2c	est	.	.
=35	=35	=35	=35	=35	=35	=35	=35
0r	.	1r	.	1d	vo-	0f	-bis,
.	.	2r	.	1B-y	-bis,	.	.
.	.	2B-y	Va-	.	.	.	.
=36	=36	=36	=36	=36	=36	=36	=36
2r	.	2A	-num	1r	.	2r	.
2E	Va-	2G	est	.	.	2g	va-
2D	-num	1A	vo-	2r	.	2f	-num
2C	est	.	.	2c	va-	2e	est
=37	=37	=37	=37	=37	=37	=37	=37
1D	vo-	1F	-bis,	2B-y	-num	1f	vo-
.	.	.	.	2A	est	.	.
1BB-y	-bis,	2r	.	1B-y	vo-	1d	-bis,
.	.	2f	va-	.	.	.	.
=38	=38	=38	=38	=38	=38	=38	=38
2r	.	2e	-num	1G	-bis,	2r	.
2B-y	va-	2d	est	.	.	2dd	va-
2A	-num	1e	vo-	2r	.	2cc	-num
2G	est	.	.	2g	va-	2b-y	est
=39	=39	=39	=39	=39	=39	=39	=39
1A	vo-	0c	-bis,	2f	-num	1cc	vo-
.	.	.	.	2e	est	.	.
1F	-bis,	.	.	1f	vo-	1a	-bis,
=40	=40	=40	=40	=40	=40	=40	=40
2r	.	2r	.	1d	-bis,	1r	.
2B-y	va-	2d	va-	.	.	.	.
2A	-num	2c	-num	2r	.	2r	.
2G	est	2B-y	est	2g	va-	2b-y	va-
=41	=41	=41	=41	=41	=41	=41	=41
2A	vo-	4c	vo-	2f	-num	2a	-num
.	.	4A	.	.	.	.	.
2B-y	.	1d	.	2d	est	2g	est
1A	.	.	.	1e	vo-	1a	vo-
.	.	2c#i	.	.	.	.	.
=42	=42	=42	=42	=42	=42	=42	=42
0D	-bis	1d	.	2d	-bis	2f	-bis
.	.	.	.	1d	an-	1f	an-
.	.	1A	-bis	.	.	.	.
.	.	.	.	2d	-te	2f	-te
=43	=43	=43	=43	=43	=43	=43	=43
0r	.	0r	.	2d	lu-	2f	lu-
.	.	.	.	2d	-cem	2f	-cem
.	.	.	.	2B-y	sur-	2g	sur-
.	.	.	.	2B-y	-ge-	2g	-ge-
=44	=44	=44	=44	=44	=44	=44	=44
2r	.	2r	.	0A	-re,	0a	-re,
1D	an-	1F	an-	.	.	.	.
2D	-te	2F	-te	.	.	.	.
=45	=45	=45	=45	=45	=45	=45	=45
2D	lu-	2F	lu-	1r	.	0r	.
2D	-cem	2F	-cem	.	.	.	.
2BB-y	sur-	2G	sur-	2r	.	.	.
2BB-y	-ge-	2G	-ge-	2d	an-	.	.
=46	=46	=46	=46	=46	=46	=46	=46
2AA	-re,	2A	-re,	2c	-te	2r	.
1D	an-	1F	an-	1f	lu-	1a	an-
2D	-te	2F	-te	2f	-cem	2a	-te
=47	=47	=47	=47	=47	=47	=47	=47
2D	lu-	2F	lu-	1f	sur-	2a	lu-
2D	-cem	2F	-cem	.	.	2a	-cem
2BB-y	sur-	2G	sur-	2.d	.	2dd	sur-
2BB-y	-ge-	2G	-ge-	.	.	2dd	-ge-
.	.	.	.	4e	.	.	.
=48	=48	=48	=48	=48	=48	=48	=48
0AA	-re;	0A	-re;	2f	.	1cc	-re;
.	.	.	.	2e	-ge-	.	.
.	.	.	.	1e	-re;	[1cc	sur-
=49	=49	=49	=49	=49	=49	=49	=49
1r	.	0r	.	1.c	sur-	2cc]	.
.	.	.	.	.	.	2g	-gi-
[1C	sur-	.	.	.	.	[1g	-te
.	.	.	.	2G	-gi-	.	.
=50	=50	=50	=50	=50	=50	=50	=50
2C]	.	1r	.	0G	-te	1g]	.
2GG	-gi-	.	.	.	.	.	.
[1GG	-te	[1G	sur-	.	.	1b-y	post-
=51	=51	=51	=51	=51	=51	=51	=51
1GG]	.	2G]	.	1B-y	post-	1b-y	-quam
.	.	2D	-gi-	.	.	.	.
1BB-y	post-	[1D	-te	1B-y	-quam	1b-y	se-
=52	=52	=52	=52	=52	=52	=52	=52
1BB-y	-quam	1D]	.	1B-y	se-	1dd	-de-
1BB-y	se-	1F	post-	1d	-de-	1dd	-ri-
=53	=53	=53	=53	=53	=53	=53	=53
1D	-de-	1F	-quam	1d	-ri-	1a	-tis,
1D	-ri-	1F	se-	1A	-tis,	2r	.
.	.	.	.	.	.	2a	se-
=54	=54	=54	=54	=54	=54	=54	=54
1AA	-tis,	1A	-de-	2r	.	1cc	-de-
.	.	.	.	2A	se-	.	.
2r	.	1A	-ri-	[1c	-de-	1cc	-ri-
2AA	se-	.	.	.	.	.	.
=55	=55	=55	=55	=55	=55	=55	=55
1C	-de-	1E	-tis,	2c]	.	1.g	-tis,
.	.	.	.	2d	.	.	.
1C	-ri-	2r	.	2e	.	.	.
.	.	2E	se-	2e	-ri-	2a	.
=56	=56	=56	=56	=56	=56	=56	=56
0GG	-tis,	1G	-de-	1d	-tis,	0b-y	.
.	.	1G	-ri-	2r	.	.	.
.	.	.	.	2d	qui	.	.
=57	=57	=57	=57	=57	=57	=57	=57
0r	.	0D	-tis,	2d	man-	2r	.
.	.	.	.	2d	-du-	2a	qui
.	.	.	.	2.f	-ca-	2a	man-
.	.	.	.	.	.	2a	-du-
.	.	.	.	4d	.	.	.
=58	=58	=58	=58	=58	=58	=58	=58
0r	.	0r	.	2e	.	2.cc	-ca-
.	.	.	.	2f	.	.	.
.	.	.	.	.	.	4a	.
.	.	.	.	2g	.	2b-y	.
.	.	.	.	2e	.	2cc	.
=59	=59	=59	=59	=59	=59	=59	=59
0r	.	0r	.	2f	.	2a	.
.	.	.	.	2g	.	1dd	.
.	.	.	.	1e	.	.	.
.	.	.	.	.	.	2cc#i	.
=60	=60	=60	=60	=60	=60	=60	=60
2r	.	1r	.	0d	-tis,	0dd	-tis,
2D	qui	.	.	.	.	.	.
2D	man-	2r	.	.	.	.	.
2D	-du-	2A	qui	.	.	.	.
=61	=61	=61	=61	=61	=61	=61	=61
2.F	-ca-	2A	man-	0r	.	0r	.
.	.	2A	-du-	.	.	.	.
4D	.	.	.	.	.	.	.
2E	.	2.c	-ca-	.	.	.	.
2F	.	.	.	.	.	.	.
.	.	4A	.	.	.	.	.
=62	=62	=62	=62	=62	=62	=62	=62
2G	.	2B-y	.	0r	.	0r	.
2E	.	2c	.	.	.	.	.
2F	.	2A	.	.	.	.	.
2G	.	[2d	.	.	.	.	.
=63	=63	=63	=63	=63	=63	=63	=63
1E	.	2d]	.	0r	.	0r	.
.	.	2c#i	.	.	.	.	.
2D	-tis,	1d	-tis,	.	.	.	.
2GG	qui	.	.	.	.	.	.
=64	=64	=64	=64	=64	=64	=64	=64
2GG	man-	2r	.	0r	.	0r	.
2GG	-du-	2D	qui	.	.	.	.
2.BB-y	-ca-	2D	man-	.	.	.	.
.	.	2D	-du-	.	.	.	.
4GG	.	.	.	.	.	.	.
=65	=65	=65	=65	=65	=65	=65	=65
2AA	.	2.F	-ca-	0r	.	0r	.
2BB-y	.	.	.	.	.	.	.
.	.	4D	.	.	.	.	.
2C	.	2E	.	.	.	.	.
2AA	.	2F	.	.	.	.	.
=66	=66	=66	=66	=66	=66	=66	=66
2BB-y	.	2D	.	0r	.	0r	.
2C	.	1G	.	.	.	.	.
1AA	.	.	.	.	.	.	.
.	.	2F#i	.	.	.	.	.
=67	=67	=67	=67	=67	=67	=67	=67
0GG	-tis,	1G	-tis,	2r	.	0r	.
.	.	.	.	2G	qui	.	.
.	.	2r	.	2G	man-	.	.
.	.	2G	qui	2G	-du-	.	.
=68	=68	=68	=68	=68	=68	=68	=68
2r	.	2G	man-	2.B-y	-ca-	2r	.
2GG	qui	2G	-du-	.	.	2d	qui
.	.	.	.	4A	.	.	.
2GG	man-	2.B-y	-ca-	4G	.	2d	man-
.	.	.	.	4F	.	.	.
2GG	-du-	.	.	2G	.	2d	-du-
.	.	4G	.	.	.	.	.
=69	=69	=69	=69	=69	=69	=69	=69
1D	-ca-	2A	.	1F	-tis,	2.f	-ca-
.	.	2B-y	.	.	.	.	.
.	.	.	.	.	.	4d	.
2C	.	2c	.	2r	.	2e	.
2F	.	2A	.	2c	qui	2f	.
=70	=70	=70	=70	=70	=70	=70	=70
2G	.	2B-y	.	2B-y	man-	2d	.
2C	.	2c	.	2e-i	-du-	1g	.
1D	.	1A	.	1d	-ca-	.	.
.	.	.	.	.	.	2f#i	.
=71	=71	=71	=71	=71	=71	=71	=71
0GG	-tis	0G	-tis	1B-y	-tis	1g	-tis
.	.	.	.	2r	.	2r	.
.	.	.	.	2B-y	pa-	2dd	pa-
=72	=72	=72	=72	=72	=72	=72	=72
0r	.	0r	.	2c	-nem	2cc	-nem
.	.	.	.	2d	do-	2b-y	do-
.	.	.	.	1e-i	-lo-	1g	-lo-
=73	=73	=73	=73	=73	=73	=73	=73
2r	.	2r	.	2d	-ris,	2a	-ris,
2BB-y	pa-	2d	pa-	2f	pa-	2d	pa-
2C	-nem	2c	-nem	2e	-nem	2e	-nem
2D	do-	2B-y	do-	2d	do-	2f	do-
=74	=74	=74	=74	=74	=74	=74	=74
1E-i	-lo-	1G	-lo-	2B-y	-lo-	1g	-lo-
.	.	.	.	2c	.	.	.
1D	-ris,	2A	-ris,	1d	-ris,	2f	-ris,
.	.	2F	pa-	.	.	2a	[pa-
=75	=75	=75	=75	=75	=75	=75	=75
0r	.	2G	-nem	2r	.	2b-y	-nem
.	.	2A	do-	2c	pa-	2a	do-
.	.	1B-y	-lo-	1d	-nem	2f	-lo-
.	.	.	.	.	.	2g	.
=76	=76	=76	=76	=76	=76	=76	=76
2r	.	2A	-ris,	2e-X	do-	2a	-ris,]
2BB-y	pa-	2d	pa-	2f	.	2d	pa-
2C	-nem	2c	-nem	2e-i	.	2e-i	-nem
2D	do-	2B-y	do-	[2d	-lo-	2f	do-
=77	=77	=77	=77	=77	=77	=77	=77
1E-i	-lo-	1G	-lo-	2d]	.	1g	-lo-
.	.	.	.	2c	.	.	.
1D	-ris,	2A	-ris,	1d	-ris,	2f	-ris,
.	.	2F	pa-	.	.	2a	pa-
=78	=78	=78	=78	=78	=78	=78	=78
1r	.	2G	-nem	1r	.	2g	-nem
.	.	2A	do-	.	.	2f	do-
2r	.	1B-y	-lo-	2r	.	2d	-lo-
2BB-y	pa-	.	.	2d	pa-	2dd	.
=79	=79	=79	=79	=79	=79	=79	=79
2C	-nem	2A	.	2e	-nem	2cc	.
2D	do-	2F	.	2f	do-	1b-y	.
1E-i	-lo-	1G	-ris,	2B-y	-lo-	.	.
.	.	.	.	2c	.	4a	.
.	.	.	.	.	.	4g	.
=80	=80	=80	=80	=80	=80	=80	=80
[0Dl	-ris.	2r	.	[0dl	-ris.	[0fl	-ris.
.	.	2A	do-	.	.	.	.
.	.	1B-y	-lo-	.	.	.	.
=81	=81	=81	=81	=81	=81	=81	=81
00D]	.	00A	-ris.	00d]	.	00f]	.
=82||	=82||	=82||	=82||	=82||	=82||	=82||	=82||
*M2/1	*	*M2/1	*	*M2/1	*	*M2/1	*
*met(C|)	*	*met(C|)	*	*met(C|)	*	*met(C|)	*
!!section: Secunda pars: Cum dederit
!!!OMD: Secunda pars: Cum dederit
1D	Cum	1r	.	0r	.	0r	.
[1F	de-	1A	Cum	.	.	.	.
=83	=83	=83	=83	=83	=83	=83	=83
2F]	.	1.c	de-	0r	.	0r	.
2F	-de-	.	.	.	.	.	.
1F	-rit	.	.	.	.	.	.
.	.	2c	-de-	.	.	.	.
=84	=84	=84	=84	=84	=84	=84	=84
2r	.	1c	-rit	0r	.	0r	.
2F	di-	.	.	.	.	.	.
2G	-le-	2r	.	.	.	.	.
2A	-ctis	2c	di-	.	.	.	.
=85	=85	=85	=85	=85	=85	=85	=85
2B-y	su-	2d	-le-	0r	.	0r	.
2G	-is	2e	-ctis	.	.	.	.
2.A	so-	1f	su-	.	.	.	.
4F	.	.	.	.	.	.	.
=86	=86	=86	=86	=86	=86	=86	=86
2G	.	2e	-is	0r	.	0r	.
2D	.	1d	so-	.	.	.	.
1E	.	.	.	.	.	.	.
.	.	2c#i	.	.	.	.	.
=87	=87	=87	=87	=87	=87	=87	=87
1D	-mnum,	2d	.	1r	.	0r	.
.	.	2A	.	.	.	.	.
1G	cum	1B-y	.	1d	Cum	.	.
=88	=88	=88	=88	=88	=88	=88	=88
1.F	de-	2A	-mnum,	1.f	de-	1a	Cum
.	.	2d	cum	.	.	.	.
.	.	4c	de-	.	.	[1cc	de-
.	.	4B-y	.	.	.	.	.
2F	-de-	4A	.	2f	-de-	.	.
.	.	4G	.	.	.	.	.
=89	=89	=89	=89	=89	=89	=89	=89
1F	-rit	2A	.	1f	-rit	2cc]	.
.	.	2A	-de-	.	.	2cc	-de-
2C	di-	2G	-rit	2r	.	1cc	-rit
[2F	-le-	[2A	di-	2c	di-	.	.
=90	=90	=90	=90	=90	=90	=90	=90
2F]	.	4A]	.	2d	-le-	2r	.
.	.	4B-y	.	.	.	.	.
2E	-ctis	2c	.	2e	-ctis	2g	di-
1D	su-	1F	-le-	2f	su-	2a	-le-
.	.	.	.	2d	-is	2b-y	-ctis
=91	=91	=91	=91	=91	=91	=91	=91
1C	-is,	1G	-ctis	2.e	so-	1cc	su-
.	.	.	.	4c	.	.	.
2r	.	2r	.	2d	.	2b-y	-is
2C	di-	2E	su-	2A	.	[2a	so-
=92	=92	=92	=92	=92	=92	=92	=92
2D	-le-	2F	.	1B-y	.	2a]	.
2E	-ctis	2G	.	.	.	2g	.
2F	su-	1D	-is,	1A	.	2.a	.
2D	-is,	.	.	.	.	.	.
.	.	.	.	.	.	4f	.
=93	=93	=93	=93	=93	=93	=93	=93
2r	.	2r	.	2B-y	.	2g	.
2F	di-	2A	di-	1d	.	2d	.
2G	-le-	2B-y	-le-	.	.	1e	.
2A	-ctis	2c	-ctis	2c#i	.	.	.
=94	=94	=94	=94	=94	=94	=94	=94
2B-y	su-	2G	su-	1d	-mnum,	1d	-mnum,
2G	-is	2B-y	-is	.	.	.	.
2.A	so-	2.c	so-	1r	.	1r	.
4F	.	4A	.	.	.	.	.
=95	=95	=95	=95	=95	=95	=95	=95
2G	.	2B-y	.	0r	.	0r	.
2D	.	1d	.	.	.	.	.
1E	.	.	.	.	.	.	.
.	.	2c#i	.	.	.	.	.
=96	=96	=96	=96	=96	=96	=96	=96
1D	-mnum,	1d	-mnum,	1f	ec-	1a	ec-
2r	.	1d	ec-	1f	-ce	1a	-ce
2D	ec-	.	.	.	.	.	.
=97	=97	=97	=97	=97	=97	=97	=97
2D	-ce	1d	-ce	2r	.	2r	.
2D	he-	.	.	2f	he-	2a	he-
[1G	-re-	2r	.	2.g	-re-	[1b-y	-re-
.	.	2d	he-	.	.	.	.
.	.	.	.	4G	-di-	.	.
=98	=98	=98	=98	=98	=98	=98	=98
2G]	.	1.e-X	-re-	1G	-tas	2b-]	.
2C	-di-	.	.	.	.	2g	-di-
1C	-tas	.	.	[1c	Do-	1g	-tas
.	.	2c	-di-	.	.	.	.
=99	=99	=99	=99	=99	=99	=99	=99
1.F	Do-	1c	-tas	2c]	.	1.a	Do-
.	.	.	.	2A	-mi-	.	.
.	.	[1d	Do-	1A	-ni	.	.
2D	-mi-	.	.	.	.	2f	-mi-
=100	=100	=100	=100	=100	=100	=100	=100
1D	-ni	2d]	.	1.d	fi-	1f	-ni
.	.	2B-y	-mi-	.	.	.	.
[1G	fi-	1B-y	-ni	.	.	[1b-y	fi-
.	.	.	.	2G	-li-	.	.
=101	=101	=101	=101	=101	=101	=101	=101
2G]	.	1.e-i	fi-	1G	-i,	2b-]	.
2C	-li-	.	.	.	.	2g	-li-
1C	-i,	.	.	1c	mer-	1g	-i,
.	.	2c	-li-	.	.	.	.
=102	=102	=102	=102	=102	=102	=102	=102
0F	mer-	1c	-i,	0A	-cis	0a	mer-
.	.	[1d	mer-	.	.	.	.
=103	=103	=103	=103	=103	=103	=103	=103
1D	-cis	1d]	.	0d	fru-	1f	-cis
[1G	fru-	1B-y	-cis	.	.	[1b-y	fru-
=104	=104	=104	=104	=104	=104	=104	=104
1G]	.	0e-i	fru-	1G	-ctus	1b-]	.
1C	-ctus	.	.	[1c	ven-	1g	-ctus
=105	=105	=105	=105	=105	=105	=105	=105
1.F	ven-	1c	-ctus	2c]	.	1.a	ven-
.	.	.	.	2F	.	.	.
.	.	[1d	ven-	1F	-tris.	.	.
2BB-y	.	.	.	.	.	2f	.
=106	=106	=106	=106	=106	=106	=106	=106
1BB-y	-tris.	2d]	.	2r	.	1f	-tris.
.	.	2B-y	.	2B-y	Sic-	.	.
2r	.	[1B-y	-tris.	2d	-ut	2r	.
2BB-y	Sic-	.	.	2d	sa-	2f	Sic-
=107	=107	=107	=107	=107	=107	=107	=107
2BB-y	-ut	1B-]	.	1d	-git-	2f	-ut
2BB-y	sa-	.	.	.	.	2f	sa-
1E-X	-git-	2r	.	1e-i	.	1g	-git-
.	.	2B-y	Sic-	.	.	.	.
=108	=108	=108	=108	=108	=108	=108	=108
1BB-y	-tae	2B-y	-ut	2d	.	0f	-tae
.	.	2B-y	sa-	1B-y	.	.	.
1F	.	1c	-git-	.	.	.	.
.	.	.	.	2A	.	.	.
=109	=109	=109	=109	=109	=109	=109	=109
2r	.	0B-y	-tae	2B-y	-tae	2r	.
2BB-y	in	.	.	2d	in	2f	in
1E-i	ma-	.	.	1e-X	ma-	1g	ma-
=110	=110	=110	=110	=110	=110	=110	=110
2BB-y	-nu	2r	.	2d	-nu	2f	-nu
2D	po-	2B-y	in	2d	po-	2d	po-
1C	-ten-	1c	ma-	1G	-ten-	1e	-ten-
=111	=111	=111	=111	=111	=111	=111	=111
1GG	-tis,	2B-y	-nu	2G	-tis,	2d	.
.	.	2G	po-	2B-y	in	1g	.
1r	.	1A	-ten-	1c	ma-	.	.
.	.	.	.	.	.	2f#i	.
=112	=112	=112	=112	=112	=112	=112	=112
2r	.	2G	-tis,	2B-y	-nu	0g	-tis,
2GG	in	2B-y	in	2d	po-	.	.
1C	ma-	1c	ma-	1e-X	-ten-	.	.
=113	=113	=113	=113	=113	=113	=113	=113
1GG	-nu	2B-y	-nu	1d	-tis,	2r	.
.	.	2G	po-	.	.	2b-y	in
1r	.	1A	-ten-	2r	.	1cc	ma-
.	.	.	.	2f	in	.	.
=114	=114	=114	=114	=114	=114	=114	=114
2r	.	1G	-tis,	1g	ma-	2b-y	-nu
2G	po-	.	.	.	.	2g	po-
2D	-ten-	1r	.	2f	-nu	1a	-ten-
2F	.	.	.	2d	po-	.	.
=115	=115	=115	=115	=115	=115	=115	=115
2E	.	1r	.	1e	-ten-	0g	-tis,
2C	.	.	.	.	.	.	.
1G	-tis,	2r	.	1d	-tis,	.	.
.	.	2B-y	in	.	.	.	.
=116	=116	=116	=116	=116	=116	=116	=116
2r	.	1c	ma-	2e	in	2r	.
2F	in	.	.	2f	ma-	2a	in
1G	ma-	2B-y	-nu	2d	-nu	1b-y	ma-
.	.	2G	po-	2B-y	po-	.	.
=117	=117	=117	=117	=117	=117	=117	=117
2F	-nu	1A	-ten-	2c	-ten-	2a	-nu
2D	po-	.	.	1d	.	2f	po-
1E	-ten-	1G	-tis,	.	.	1g	-ten-
.	.	.	.	2c#i	.	.	.
=118	=118	=118	=118	=118	=118	=118	=118
1D	-tis,	2r	.	2d	.	1f	-tis,
.	.	1d	i-	2A	-tis,	.	.
2r	.	.	.	2r	.	2r	.
[2G	i-	2d	-ta	[2B-y	i-	[2g	i-
=119	=119	=119	=119	=119	=119	=119	=119
2G]	.	2d	fi-	2B-]	.	2g]	.
2G	-ta	2d	-li-	2B-y	-ta	2g	-ta
2G	fi-	1d	-i	2B-y	fi-	2g	fi-
2G	-li-	.	.	2B-y	-li-	2g	-li-
=120	=120	=120	=120	=120	=120	=120	=120
2D	-i	2r	.	2A	-i	1f	-i,
2BB-y	ex-	2D	ex-	2d	ex-	.	.
2C	-cus-	2E	-cus-	2c	-cus-	1r	.
[2D	-so-	[2F	-so-	[2B-y	-so-	.	.
=121	=121	=121	=121	=121	=121	=121	=121
2D]	.	2F]	.	2B-]	.	0r	.
4C	.	4E	.	4A	.	.	.
4BB-y	.	4D	.	4G	.	.	.
1AA	.	1C	.	1F#i	.	.	.
=122	=122	=122	=122	=122	=122	=122	=122
[0GG	-rum,	2D	-rum,	1G	-rum,	1r	.
.	.	1G	i-	.	.	.	.
.	.	.	.	2r	.	2r	.
.	.	2G	-ta	[2g	i-	[2b-y	i-
=123	=123	=123	=123	=123	=123	=123	=123
0GG]	.	2G	fi-	2g]	.	2b-]	.
.	.	2G	-li-	2g	-ta	2b-y	-ta
.	.	1G	-i	2g	fi-	2b-y	fi-
.	.	.	.	2g	-li-	2b-y	-li-
=124	=124	=124	=124	=124	=124	=124	=124
1r	.	2r	.	2d	-i	2a	-i
.	.	2d	ex-	2B-y	ex-	2dd	ex-
2r	.	2e	-cus-	2c	-cus-	2cc	-cus-
[2BB-y	ex-	[2f	-so-	[2d	-so-	[2b-y	-so-
=125	=125	=125	=125	=125	=125	=125	=125
2BB-]	.	2f]	.	2d]	.	2b-]	.
2C	-cus-	2e	.	4c	.	4a	.
.	.	.	.	4B-y	.	4g	.
1D	-so-	1d	.	1A	.	1f#i	.
=126	=126	=126	=126	=126	=126	=126	=126
*M3/1	*	*M3/1	*	*M3/1	*	*M3/1	*
*met(C|3)	*	*met(C|3)	*	*met(C|3)	*	*met(C|3)	*
0GG	-rum.	0B-y	-rum.	0G	-rum.	0g	-rum.
1r	.	1r	.	1r	.	1r	.
=127	=127	=127	=127	=127	=127	=127	=127
1G	Be-	1B-y	Be-	1d	Be-	1g	Be-
1G	-a-	1B-y	-a-	1d	-a-	1g	-a-
1G	-tus	1B-y	-tus	1e	-tus	1g	-tus
=128	=128	=128	=128	=128	=128	=128	=128
0F	vir	0c	vir	0f	vir	0a	vir
1G	qui	1B-y	qui	1d	qui	1g	qui
=129	=129	=129	=129	=129	=129	=129	=129
1F	im-	1c	im-	1f	im-	1a	im-
0B-y	-ple-	0d	-ple-	0g	-ple-	0b-y	-ple-
=130	=130	=130	=130	=130	=130	=130	=130
0F	-vit	0c	-vit	0f	-vit	0a	-vit
1G	de-	1B-y	de-	1d	de-	1g	de-
=131	=131	=131	=131	=131	=131	=131	=131
1F	-si-	1c	-si-	1f	-si-	1a	-si-
1.B-y	-de-	1.d	-de-	1.g	-de-	1.b-y	-de-
2B-y	-ri-	2d	-ri-	2g	-ri-	2b-y	-ri-
=132	=132	=132	=132	=132	=132	=132	=132
1F	-um	1c	-um	1f	-um	1a	-um
1G	su-	1B-y	su-	1d	su-	1g	su-
1F	-um	1c	-um	1f	-um	1a	-um
=133	=133	=133	=133	=133	=133	=133	=133
1G	ex	1B-y	ex	1d	ex	1b-y	ex
0C	i-	0c	i-	0e	i-	0g	i-
=134	=134	=134	=134	=134	=134	=134	=134
*M2/1	*	*M2/1	*	*M2/1	*	*M2/1	*
*met(C|)	*	*met(C|)	*	*met(C|)	*	*met(C|)	*
0D	-psis;	0A	-psis;	1d	-psis;	1f	-psis;
.	.	.	.	2r	.	2r	.
.	.	.	.	2f	non	2a	non
=135	=135	=135	=135	=135	=135	=135	=135
0r	.	0r	.	2e	con-	2g	con-
.	.	.	.	2d	-fun-	2f	-fun-
.	.	.	.	1c	-de-	1e	-de-
=136	=136	=136	=136	=136	=136	=136	=136
2r	.	2r	.	1d	-tur,	1d	-tur
2D	non	2B-y	non	.	.	.	.
2C	con-	2A	con-	1r	.	1r	.
2BB-y	-fun-	2G	-fun-	.	.	.	.
=137	=137	=137	=137	=137	=137	=137	=137
1AA	-de-	1F	-de-	1r	.	0r	.
2GG	-tur,	2G	-tur,	2r	.	.	.
2G	non	2B-y	non	2e-X	non	.	.
=138	=138	=138	=138	=138	=138	=138	=138
2F	con-	2A	con-	2d	con-	0r	.
2E	-fun-	2G	-fun-	2c	-fun-	.	.
1D	-de-	1F	-de-	1B-y	-de-	.	.
=139	=139	=139	=139	=139	=139	=139	=139
1C	-tur	0G	-tur	1c	-tur	2r	.
.	.	.	.	.	.	1cc	cum
[1C	cum	.	.	2r	.	.	.
.	.	.	.	[2e	cum	2cc	lo-
=140	=140	=140	=140	=140	=140	=140	=140
2C]	.	2r	.	2e]	.	1cc	-que-
2C	lo-	1G	cum	2e	lo-	.	.
1C	-que-	.	.	1e	-que-	1g	-tur
.	.	2G	lo-	.	.	.	.
=141	=141	=141	=141	=141	=141	=141	=141
1GG	-tur	1G	-que-	2d	-tur	2r	.
.	.	.	.	1g	in-	1b-y	in-
1r	.	1D	-tur	.	.	.	.
.	.	.	.	2f	-i-	2a	-i-
=142	=142	=142	=142	=142	=142	=142	=142
0r	.	0r	.	2e	-mi-	2g	-mi-
.	.	.	.	2d	-cis	2f	-cis
.	.	.	.	1c	su-	1g	su-
=143	=143	=143	=143	=143	=143	=143	=143
2r	.	2r	.	1B-y	-is,	0d	-is,
1G	in-	1B-y	in-	.	.	.	.
.	.	.	.	1r	.	.	.
2F	-i-	2A	-i-	.	.	.	.
=144	=144	=144	=144	=144	=144	=144	=144
2E	-mi-	2G	-mi-	0r	.	0r	.
2D	-cis	2F	-cis	.	.	.	.
1C	su-	1G	su-	.	.	.	.
=145	=145	=145	=145	=145	=145	=145	=145
2BB-y	-is,	2D	-is,	2r	.	2r	.
1B-y	in-	1d	in-	1f	in-	1b-y	in-
2F	-i-	2c	-i-	2f	-i-	2a	-i-
=146	=146	=146	=146	=146	=146	=146	=146
2G	-mi-	2B-y	-mi-	2d	-mi-	2g	-mi-
2D	-cis	2A	-cis	2d	-cis	2f	-cis
1E-X	su-	[1G	su-	1B-y	su-	1g	su-
=147	=147	=147	=147	=147	=147	=147	=147
0BB-y	-is,	2G]	.	1B-y	-is,	0d	-is,
.	.	2F	.	.	.	.	.
.	.	1F	-is,	2r	.	.	.
.	.	.	.	[2B-y	in-	.	.
=148	=148	=148	=148	=148	=148	=148	=148
2r	.	2r	.	2B-]	.	2r	.
1B-y	in-	1G	in-	2G	-i-	1dd	in-
.	.	.	.	2B-y	-mi-	.	.
2A	-i-	2A	-i-	2c	.	2cc	-i-
=149	=149	=149	=149	=149	=149	=149	=149
2G	-mi-	2B-y	-mi-	2d	-cis	2b-y	-mi-
2F	-cis	2c	-cis	2.f	su-	2a	-cis
1G	su-	2B-y	su-	.	.	1b-y	su-
.	.	.	.	4e	.	.	.
.	.	2G	.	4e	.	.	.
.	.	.	.	4d	.	.	.
=150	=150	=150	=150	=150	=150	=150	=150
0D	-is	1d	.	1f	-is	[0a	-is
.	.	1A	-is	2r	.	.	.
.	.	.	.	2d	in	.	.
=151	=151	=151	=151	=151	=151	=151	=151
2r	.	1d	.	1f	por-	0a]	.
2D	in	.	.	.	.	.	.
1F	por-	2r	.	1c	-ta,	.	.
.	.	2A	in	.	.	.	.
=152	=152	=152	=152	=152	=152	=152	=152
0C	-ta,	1c	por-	2r	.	2r	.
.	.	.	.	2e-X	in	2g	in
.	.	1G	-ta,	2.e-i	por-	2.cc	por-
.	.	.	.	4d	.	4b-y	.
=153	=153	=153	=153	=153	=153	=153	=153
0r	.	0r	.	4c	.	4a	.
.	.	.	.	4B-y	.	4g	.
.	.	.	.	4A	.	1g	.
.	.	.	.	4G	.	.	.
.	.	.	.	1A	.	.	.
.	.	.	.	.	.	2f#i	.
=154	=154	=154	=154	=154	=154	=154	=154
2r	.	2r	.	0G	-ta,	0g	-ta,
2E-X	in	2G	in	.	.	.	.
2.E-i	por-	2.c	por-	.	.	.	.
4D	.	4B-y	.	.	.	.	.
=155	=155	=155	=155	=155	=155	=155	=155
4C	.	4A	.	0r	.	0r	.
4BB-y	.	4G	.	.	.	.	.
4AA	.	1G	.	.	.	.	.
4GG	.	.	.	.	.	.	.
1AA	.	.	.	.	.	.	.
.	.	2F#i	.	.	.	.	.
=156	=156	=156	=156	=156	=156	=156	=156
1GG	-ta,	[0Gl	-ta.	2r	.	2r	.
.	.	.	.	2d	in	2b-y	in
1GG	in	.	.	2.g	por-	2.b-y	por-
.	.	.	.	4f	.	4a	.
=157	=157	=157	=157	=157	=157	=157	=157
0C	por-	0G_	.	4e	.	4g	.
.	.	.	.	4d	.	4f	.
.	.	.	.	4c	.	4e	.
.	.	.	.	4B-y	.	4d	.
.	.	.	.	1c	.	1e	.
=158	=158	=158	=158	=158	=158	=158	=158
[0GGl	-ta.	0G_	.	2B-y	-ta,	2d	-ta,
.	.	.	.	2B-y	in	2d	in
.	.	.	.	1d	por-	1g	por-
=159	=159	=159	=159	=159	=159	=159	=159
00GG]	.	00G]	.	00B-yl	-ta.	00dl	-ta.
==	==	==	==	==	==	==	==
*-	*-	*-	*-	*-	*-	*-	*-
!!!system-decoration: [*]
!!!RDF**kern: i = editorial accidental
!!!RDF**kern: l = terminal long
!!!PTL: <i> New Senfl Edition: Motets for Four Voices (N-V) </i>
!!!PPR: Hollitzer Verlag
!!!PC#: Denkmäler der Tonkunst in Österreich 163.2
!!!PDT: 2022
!!!PED: Scott Lee Edwards, Stefan Gasch, and Sonja Tröster
!!!YEC: Copyright 2022 Denkmäler der Tonkunst in Österreich
!!!YEM: CC-BY-NC 4.0 (https://creativecommons.org/licenses/by-nc/4.0/legalcode)
!!!EED: Benjamin Ory
!!!EEV: 2024/3/9
!!!verovio: header true
!!!header-left: @{PTL}\n@{PED}, eds.\n@{PC#} (@{PDT})&nbsp;\n
!!!header-right: @{COM}
!!!header-center: @{OTL}